src/components/content/our-services/pencil-and-ruler.svg

<svg width="38" height="38" viewBox="0 0 38 38" fill="none" xmlns="http://www.w3.org/2000/svg">
  <path
    d="M27.8333 17.9792L31.1042 14.7083L23.2917 6.89583L20.0208 10.1667L11.3958 1.5625C9.77083 -0.0625 7.125 -0.0625 5.5 1.5625L1.54167 5.52083C-0.0833335 7.14583 -0.0833335 9.79167 1.54167 11.4167L10.1458 20.0208L0.25 29.9375V37.75H8.0625L17.9792 27.8333L26.5833 36.4375C28.5625 38.4167 31.2292 37.6875 32.4792 36.4375L36.4375 32.4792C38.0625 30.8542 38.0625 28.2083 36.4375 26.5833L27.8333 17.9792ZM13.125 17.0625L4.5 8.45833L8.4375 4.5L11.0833 7.14583L8.625 9.625L11.5625 12.5625L14.0417 10.0833L17.0625 13.1042L13.125 17.0625ZM29.5417 33.5L20.9375 24.8958L24.8958 20.9375L27.9167 23.9583L25.4375 26.4375L28.375 29.375L30.8542 26.8958L33.5 29.5417L29.5417 33.5Z"
    fill="#04E0BD"/>
  <path
    d="M37.1459 8.66655C37.9584 7.85405 37.9584 6.54155 37.1459 5.72905L32.2709 0.854054C31.2917 -0.125113 29.9375 0.249887 29.3334 0.854054L25.5209 4.66655L33.3334 12.4791L37.1459 8.66655Z"
    fill="#04E0BD"/>
</svg>

<svg xmlns="http://www.w3.org/2000/svg" viewBox="0 0 38 38" class="service-icon">
  <path
    d="m27.833 17.98 3.271-3.272-7.812-7.812-3.271 3.27-8.625-8.604a4.175 4.175 0 0 0-5.896 0L1.542 5.521a4.175 4.175 0 0 0 0 5.896l8.604 8.604L.25 29.937v7.813h7.813l9.916-9.917 8.604 8.605c1.98 1.979 4.646 1.25 5.896 0l3.959-3.959a4.175 4.175 0 0 0 0-5.896l-8.605-8.604Zm-14.708-.918L4.5 8.459 8.438 4.5l2.645 2.646-2.458 2.479 2.938 2.938 2.479-2.48 3.02 3.021-3.937 3.959ZM29.542 33.5l-8.605-8.604 3.959-3.959 3.02 3.021-2.479 2.48 2.938 2.937 2.48-2.48 2.645 2.647-3.958 3.958Zm7.604-24.833a2.075 2.075 0 0 0 0-2.938L32.27.854c-.98-.98-2.334-.604-2.938 0L25.52 4.667l7.812 7.812 3.813-3.812Z"/>
</svg>
